X: 33
T: Resvelons nous resvelons amoureux / Alons en bien tos au may
N: Derived from Duf3069-Resvelons_nous_resvelons_amoureux__Alons_en_bien_tos_au_may.krn
C: Guillaume Du Fay
%%abc-version 2.0
%%abcx-abcm2ps-target-version 5.9.1 (29 Sep 2008)
%%abc-creator hum2abc beta
%%abcx-conversion-date 2019/02/16 20:31:47
%%abc-edited-by Jesse Rodin
%%abc-edited-by Alejandro Planchart
%%abcx-initial-encoding-date 2016/03/17/
%%humdrum-veritas 509743546
%%humdrum-veritas-data 1645088017
%%linebreak <none>
%%barnumbers 0
L: 1/4
M: 3/1
Q: 1/2=120
V: 1 clef=treble
V: 2 clef=treble-8
V: 3 clef=bass
K: C
[V:1] G4G4F2G2 | 
[V:2] c8d4 | 
[V:3] z12 | 
[V:1] A4G2F4E2 | 
[V:2] c8B4 | 
[V:3] F,8G,4 | 
[V:1] D8^C4 | 
[V:2] A8G4 | 
[V:3] F,8E,4 | 
[V:1] D4z4E4 | 
[V:2] A12 | 
[V:3] D,8C,4 | 
[V:1] F8D4 | 
[V:2] z12 | 
[V:3] D,12 | 
[V:1] E8D4 | 
[V:2] c8d4 | 
[V:3] z12 | 
[V:1] A,4z2A,2B,2C2 | 
[V:2] c8B4 | 
[V:3] F,8G,4 | 
[V:1] D2E2D2D2^C2B,2 | 
[V:2] A8G4 | 
[V:3] F,8E,4 | 
[V:1] !fermata!D4z4z4 | 
[V:2] A12 | 
[V:3] D,8C,4 | 
[V:1] A4A4A4 | 
[V:2] z12 | 
[V:3] D,12 | 
[V:1] G4c4B4 | 
[V:2] c8d4 | 
[V:3] z12 | 
[V:1] A2G2F2E4D2 | 
[V:2] c8B4 | 
[V:3] F,8G,4 | 
[V:1] F4z4G4 | 
[V:2] A8G4 | 
[V:3] F,8E,4 | 
[V:1] F8E4 | 
[V:2] A12 | 
[V:3] D,8C,4 | 
[V:1] D6C2D2B,2 | 
[V:2] z12 | 
[V:3] D,12 | 
[V:1] A,4z4A4 | 
[V:2] c8d4 | 
[V:3] z12 | 
[V:1] A2G2F4E4 | 
[V:2] c8B4 | 
[V:3] F,8G,4 | 
[V:1] D8^C4 | 
[V:2] A8G4 | 
[V:3] F,8E,4 | 
[V:1] D8E4 | 
[V:2] A12 | 
[V:3] D,8C,4 | 
[V:1] F6E2F2G2 | 
[V:2] z12 | 
[V:3] D,12 | 
[V:1] E2F2D2^C2C2B,2 | 
[V:2] G8G4 | 
[V:3] E,8E,4 | 
[V:1] D12 |]  
[V:2] A12 |]  
[V:3] D,12 |]  



